X: 85
T:Edmund MacKenzie of Plockton
% Nottingham Music Database
S:Andrew Rankine, via Phil Rowe
M:6/8
K:G
FE|:"G"DEF GAB|d2d B3|"Am"c2c "D7"A3|"G"d2d B3|
"G"DEF GAB|"G"d2d B3| "G"d^cd "D7"=cAF|"G"G3 G3::
"C"e3 c3|"G"d^cd B3|"Am"cBc "D"DFA|"D7"d2c "G"B2B|
"C"e3 c3|"G"d^cd B3| "G"ded "D7"cBA|"G"G3 G3:|<end>
<start>
